X:199
T:Seignor, saichiés qui or ne s'en ira
T:Chanson de croisade
R:Chanson
C:Thibaut de Champagne
M:6/8
L:1/8
Q:1/4=120
K:G 
V:1
e3 eA2 | e3 fe2 | d3 BA2 | G2-Gz2z | 
G3 AB2 | d3 ed2 | gf2 ed2 | e2-ez2z | \
e3 eA2 | e3 fe2 | d3 BA2 | G2-Gz2z | 
G3 AB2 | d3 ed2 | gf2 ed2 | e2-ez2z | 
g3 ag/2f/2e | d3 Bd2 | c3 cc2 | c/2B/2AG AB2 | 
G3 AAB | AG2 Bd2 | c3 Bd2 | e3 cB2 | 
G3 AAB | G3 Bd2 | cB2 AAG | GA2 |]








